svg/Filled/play-skip-back_filled.svg

<svg viewBox="0 0 24 24" xmlns="http://www.w3.org/2000/svg" width="24" height="24"><path d="M2.9 1c.5 0 .9.4.9.9v7.2q.33-.22.75-.47L5.8 7.9l7.23-4.18q1.38-.82 2.3-1.26a3.6 3.6 0 0 1 1.86-.41l.17.02a3.3 3.3 0 0 1 2.15 1.32l.13.2c.28.47.39 1.03.44 1.62q.07 1 .06 2.61v8.36q.02 1.6-.06 2.61a3.6 3.6 0 0 1-.57 1.82l-.1.14a3.3 3.3 0 0 1-2.22 1.2l-.24.02c-.55 0-1.09-.18-1.62-.43q-.92-.44-2.3-1.26L5.8 16.11q-1.2-.71-2-1.21v7.29a.9.9 0 0 1-1.8 0V1.9c0-.5.4-.9.9-.9"/></svg>

<svg viewBox="0 0 24 24" xmlns="http://www.w3.org/2000/svg" width="24" height="24"><path d="M2.9 1C3.4 1 3.8 1.4 3.8 1.9L3.8 9.1Q4.13 8.88 4.55 8.63L13.03 3.72Q14.41 2.9 15.33 2.46A3.6 3.6 0 0 1 17.19 2.05L17.36 2.07A3.3 3.3 0 0 1 19.51 3.39L19.64 3.59C19.92 4.06 20.03 4.62 20.08 5.21Q20.15 6.21 20.14 7.82L20.14 16.18Q20.16 17.78 20.08 18.79A3.6 3.6 0 0 1 19.51 20.61L19.41 20.75A3.3 3.3 0 0 1 17.19 21.95L16.95 21.97C16.4 21.97 15.86 21.79 15.33 21.54Q14.41 21.1 13.03 20.28L5.8 16.11Q4.6 15.4 3.8 14.9L3.8 22.19A.9 .9 0 0 1 2 22.19L2 1.9C2 1.4 2.4 1 2.9 1"/></svg>
